src/icons/wind.svg

<?xml version="1.0" ?><svg height="32px" version="1.1" viewBox="0 0 32 32" width="32px" xmlns="http://www.w3.org/2000/svg" xmlns:sketch="http://www.bohemiancoding.com/sketch/ns" xmlns:xlink="http://www.w3.org/1999/xlink"><title/><desc/><defs/><g fill="none" fill-rule="evenodd" id="Page-1" stroke="none" stroke-width="1"><g fill="#929292" id="icon-73-wind-turbine"><path d="M18.3851423,15.1489195 C22.4345704,16.9592954 24.6173213,17.7979654 24.6173213,17.7979654 C24.6173213,17.7979654 22.1455614,15.8277287 19.2032513,13.726359 C19.0665374,14.2761399 18.7781751,14.7659861 18.3851423,15.1489195 L18.3851423,15.1489195 L18.3851423,15.1489195 Z M13.3785577,13.7192585 C9.74084898,16.3517113 7.90017493,17.8412982 7.90017493,17.8412982 C7.90017493,17.8412982 10.8853518,16.6689135 14.2053013,15.1555999 C13.8070581,14.7700479 13.515337,14.2751274 13.3785577,13.7192585 L13.3785577,13.7192585 L13.3785577,13.7192585 Z M19.259605,12.5590517 C21.8149878,14.3737243 27.96199,18.8389755 27.5652303,19.5261841 C27.1694193,20.2117497 20.2610975,17.1373155 17.3992099,15.8262632 L17.3992099,15.8262632 L18.2917827,31 C18.2917827,31 17.7917827,32 16.2917827,32 C14.7917827,32 14.2917827,31 14.2917827,31 L15.1843554,15.8262632 L15.1843554,15.8262632 C12.322468,17.1373154 5.41414674,20.2117493 5.01833505,19.5261841 C4.62157479,18.8389759 10.7685774,14.3737244 13.3239604,12.5590517 C13.4365335,11.7948098 13.8372888,11.1243447 14.4122805,10.661602 C14.7072543,7.53219067 15.4995185,3.58885692e-07 16.2917827,0 C17.0840469,-3.58885704e-07 17.8763111,7.53219053 18.1712849,10.661602 C18.7462766,11.1243447 19.1470319,11.7948098 19.259605,12.5590517 L19.259605,12.5590517 L19.259605,12.5590517 Z M16.173264,15.9977018 L15.3024028,30.6765747 C15.3024028,30.6765747 15.4961894,30.9999981 16.2917827,31 C17.0873759,31.0000019 17.2914775,30.6765747 17.2914775,30.6765747 L16.4115341,15.9976536 C16.3718105,15.999213 16.3318885,16 16.2917827,16 C16.2520917,16 16.2125808,15.9992292 16.173264,15.9977018 L16.173264,15.9977018 L16.173264,15.9977018 Z M17.121434,10.1161956 C16.6609588,5.65560243 16.2917827,3.31994629 16.2917827,3.31994629 C16.2917827,3.31994629 15.8152163,6.48667909 15.4658794,10.1151219 C15.7282571,10.0401473 16.0053314,10 16.2917827,10 C16.5795983,10 16.8579475,10.0405306 17.121434,10.1161956 L17.121434,10.1161956 L17.121434,10.1161956 Z M16.2917827,15 C17.3963522,15 18.2917827,14.1045696 18.2917827,13 C18.2917827,11.8954304 17.3963522,11 16.2917827,11 C15.1872131,11 14.2917827,11.8954304 14.2917827,13 C14.2917827,14.1045696 15.1872131,15 16.2917827,15 L16.2917827,15 Z" id="wind-turbine"/></g></g></svg>

<svg width="32" height="32" xmlns="http://www.w3.org/2000/svg">
 <title/>
 <desc/>

 <g>
  <title>background</title>
  <rect fill="none" id="canvas_background" height="402" width="582" y="-1" x="-1"/>
 </g>
 <g>
  <title fill="#ffffff">Layer 1</title>
  <path fill="#ffffff" id="wind-turbine" d="m19.25961,12.55905c2.55538,1.81467 8.70238,6.27993 8.30562,6.96713c-0.39581,0.68557 -7.30413,-2.38886 -10.16602,-3.69992l0,0l0.89257,15.17374c0,0 -0.5,1 -2,1c-1.5,0 -2,-1 -2,-1l0.89258,-15.17374l0,0c-2.86189,1.31106 -9.77021,4.38549 -10.16602,3.69992c-0.39677,-0.6872 5.75024,-5.15246 8.30562,-6.96713c-0.0212,0.14391 -0.03218,0.29115 -0.03218,0.44095c0,1.65685 1.34315,3 3,3c1.65686,0 3,-1.34315 3,-3c0,-0.1498 -0.01098,-0.29704 -0.03217,-0.44095l0,0l0,0zm-1.08833,-1.89745c-0.29497,-3.12941 -1.08723,-10.6616 -1.8795,-10.6616c-0.79226,0 -1.58453,7.53219 -1.8795,10.6616c0.51429,-0.41389 1.16797,-0.6616 1.8795,-0.6616c0.71154,0 1.36522,0.24771 1.8795,0.6616l0,0l0,0zm-1.8795,4.3384c1.10457,0 2,-0.89543 2,-2c0,-1.10457 -0.89543,-2 -2,-2c-1.10457,0 -2,0.89543 -2,2c0,1.10457 0.89543,2 2,2l0,0z"/>
 </g>
</svg>
